!! J.S. Bach, Die Kunst der Fuge; Fuga IV in d minor; BWV 1080.
!! Encoded from "Bach; Die Kunst der Fuge", (Carl Czerny, ed.)
!! New York: C.F. Peters Co., pp.10-13; in four voices.
!! Performance duration: 3:53; performance tempo: 142.1 quarter-notes per min.
!! (Davitt Moroney, harpsichord, "Bach, 'Die Kunst der Fuge'",
!! Harmonia Mundi No. HMC 1169.70)
**kern	**kern	**kern	**kern
*d:	*d:	*d:	*d:
*M2/2	*M2/2	*M2/2	*M2/2
*MM142.1	*MM142.1	*MM142.1	*MM142.1
=1	=1	=1	=1
1r	1r	1r	2a
.	.	.	2d
=2	=2	=2	=2
1r	1r	1r	2f
.	.	.	2a
=3	=3	=3	=3
1r	1r	1r	2b-
.	.	.	4a
.	.	.	4g
=4	=4	=4	=4
1r	1r	1r	[2f
.	.	.	8f]
.	.	.	8e
.	.	.	8f
.	.	.	8g
=5	=5	=5	=5
1r	1r	2d	[2a
.	.	2A	8a]
.	.	.	8b-
.	.	.	8a
.	.	.	8g#
=6	=6	=6	=6
1r	1r	2c	[2a
.	.	2e	8a]
.	.	.	8b-
.	.	.	8a
.	.	.	8g#
=7	=7	=7	=7
1r	1r	2f	4a
.	.	.	4dd
.	.	4e	4gn
.	.	4d	[4b-
=8	=8	=8	=8
1r	1r	[2c#	4b-]
.	.	.	4e
.	.	8c#]	4a
.	.	8A	.
.	.	8Bn	[4g
.	.	8c#	.
=9	=9	=9	=9
1r	1r	[2d	4g]
.	.	.	4f
.	.	8d]	[2b-
.	.	8cn	.
.	.	8d	.
.	.	8e	.
=10	=10	=10	=10
1r	1r	[2f	4b-]
.	.	.	4a
.	.	8f]	[2dd
.	.	8e	.
.	.	8f	.
.	.	8g	.
=11	=11	=11	=11
1r	2A	[2a	4dd]
.	.	.	4cc
.	2D	8a]	[2b-
.	.	8g	.
.	.	8f	.
.	.	8e	.
=12	=12	=12	=12
1r	2F	[2d	4b-]
.	.	.	8a
.	.	.	8g
.	2A	8d]	[2f
.	.	8e	.
.	.	8d	.
.	.	8c#	.
=13	=13	=13	=13
1r	2B-	4d	8f]
.	.	.	8ff
.	.	4g	8ee
.	.	.	8dd
.	4A	4c#	8ee
.	.	.	8ff
.	4G	[4e	8gg
.	.	.	8ee
=14	=14	=14	=14
1r	[2F	4e]	2aa
.	.	4A	.
.	8F]	[2d	4r
.	8E	.	.
.	8F	.	4a
.	8G	.	.
=15	=15	=15	=15
2D	[2A	8d]	1f
.	.	8e-	.
.	.	8d	.
.	.	8c#	.
2AA	8A]	4d	.
.	8B-	.	.
.	8A	[4dd	.
.	8G#	.	.
=16	=16	=16	=16
2Cn	[2A	4dd]	4en
.	.	8ccn	4ee
.	.	8bn	.
2E	8A]	8a	[2cc
.	8B-	8g	.
.	8A	8f	.
.	8G#	8e	.
=17	=17	=17	=17
2F	4A	4d	8cc]
.	.	.	8cc
.	4d	[4g	8bn
.	.	.	8a
4E	4Gn	8g]	8b
.	.	8a	8cc#
4D	[4B-	8g	4dd
.	.	8f	.
=18	=18	=18	=18
[2C#	4B-]	8g	[2ee
.	.	8a	.
.	4E	8b-	.
.	.	8g	.
8C#]	4A	[2e	8ee]
8AA	.	.	8cc#
8BBn	4G	.	8dd
8C#	.	.	8ee
=19	=19	=19	=19
[2D	8F	4e]	2.a
.	8E	.	.
.	8F	8d	.
.	8G	8e	.
8D]	4A	[2f	.
8Cn	.	.	.
8BB-	4r	.	4dd
8AA	.	.	.
=20	=20	=20	=20
[2GG	8r	4f]	2.b-
.	8D	.	.
.	8E	4g	.
.	8F	.	.
8GG]	4G	[2e	.
8BB-	.	.	.
8AA	4r	.	4cc
8GG	.	.	.
=21	=21	=21	=21
[2FF	8r	4e]	2.a
.	8C#	.	.
.	8D	4f	.
.	8E	.	.
8FF]	4F	[2d	.
8AA	.	.	.
8GG	4r	.	4b-
8FF	.	.	.
=22	=22	=22	=22
[2EE	8r	4d]	2.g
.	8BBn	.	.
.	8C#	4e	.
.	8D	.	.
8EE]	4E	2c#	.
8GG	.	.	.
8FF	4r	.	4a
8EE	.	.	.
=23	=23	=23	=23
4DD	8r	2d	2f
.	8A	.	.
4D	8B-	.	.
.	8cn	.	.
4BB-	[2d	8r	2r
.	.	8cc	.
4GG	.	8b-	.
.	.	8a	.
=24	=24	=24	=24
4EE	8d]	[2g	1r
.	8Bn	.	.
4E	8c	.	.
.	8d	.	.
4C	[2e	8g]	.
.	.	8dd	.
4AA	.	8cc	.
.	.	8b-	.
=25	=25	=25	=25
4FF	8e]	[2a	1r
.	8c#	.	.
4F	8d	.	.
.	8e	.	.
4D	[2f	8a]	.
.	.	8ee-	.
4BB-	.	8dd	.
.	.	8ccn	.
=26	=26	=26	=26
4GG	8f]	[2b-	1r
.	8f	.	.
4G	8en	.	.
.	8d	.	.
4E	[2c	8b-]	.
.	.	8b-	.
4C	.	8a	.
.	.	8g	.
=27	=27	=27	=27
8AA	2.c]	4f	2cc
8FF	.	.	.
8GG	.	4e-	.
8AA	.	.	.
8BB-	.	2d	2f
8C	.	.	.
8D	4B-	.	.
8En	.	.	.
=28	=28	=28	=28
[2F	4A	8c	2a
.	.	8g-	.
.	4c	8f	.
.	.	8e	.
8F]	[2A	[2f	2cc
8E-	.	.	.
8D	.	.	.
8C	.	.	.
=29	=29	=29	=29
2BB-	8A]	8f]	2dd
.	8A	8cc	.
.	8G	8b-	.
.	8F	8a	.
2C	8En	8g	4cc
.	8D	8a	.
.	[4E	8g	4b-
.	.	8f	.
=30	=30	=30	=30
2C#	4E]	8e	[2a
.	.	8d	.
.	8A	4e	.
.	8G	.	.
2D	8F	4d	8a]
.	8E	.	8g
.	[4F	4r	8a
.	.	.	8bn
=31	=31	=31	=31
2Cn	4F]	2g	2cc
.	8E	.	.
.	8D	.	.
4r	8E	2c	2r
.	8F	.	.
4E	[4G	.	.
=32	=32	=32	=32
4C	8G]	2e	4r
.	8A	.	.
8G	2B-	.	4ee
8F	.	.	.
8E	.	2g	[2cc
8D	.	.	.
[4E-	8A	.	.
.	8G	.	.
=33	=33	=33	=33
8E-]	2F	2a	4cc]
8E-	.	.	.
8D	.	.	8bn
8C	.	.	8cc
8BBn	2r	4g	[2dd
8GG	.	.	.
8AA	.	4f	.
8BB	.	.	.
=34	=34	=34	=34
4C	1r	[2en	8dd]
.	.	.	8g
4BB-	.	.	8a
.	.	.	8bn
2AA	.	8e]	[2cc
.	.	8d	.
.	.	8e	.
.	.	8f#	.
=35	=35	=35	=35
8GG	2d	[2g	4cc]
8AA	.	.	.
8BB-	.	.	4dd
8D	.	.	.
4G	2G	8g]	2b-
.	.	8a-	.
4r	.	8g	.
.	.	8f#	.
=36	=36	=36	=36
1r	2B-	[2g	4r
.	.	.	4dd
.	2d	8g]	4b-
.	.	8a-	.
.	.	8g	[4bb-
.	.	8f#	.
=37	=37	=37	=37
1r	2e-	4g	4bb-]
.	.	4cc	8aan
.	.	.	8gg
.	4d	4f#	8aa
.	.	.	8gg
.	4c	[4a	8ff#
.	.	.	8aa
=38	=38	=38	=38
1r	[2B-	8a]	2dd
.	.	8a-	.
.	.	8g	.
.	.	8f#	.
.	8B-]	[2g	4r
.	8An	.	.
.	8B-	.	4dd
.	8c	.	.
=39	=39	=39	=39
2G	8d	8g]	4.b-
.	8e-	8f#	.
.	8d	[4g	.
.	8c#	.	8b-
2D	8d	8g]	2a
.	8En	8g	.
.	8Fn	8fn	.
.	8G	8e	.
=40	=40	=40	=40
2F	8A	4d	4r
.	8D	.	.
.	[4d	4r	4aa
2A	8d]	4r	2ff
.	8e-	.	.
.	8d	4a	.
.	8c#	.	.
=41	=41	=41	=41
2B-	8d	4f	4r
.	8f	.	.
.	8en	4b-	4gg
.	8d	.	.
4A	4a	4.e	8cc#
.	.	.	8dd
4G	[4c#	.	[4ee
.	.	8b-	.
=42	=42	=42	=42
[2F	4c#]	8a	8ee]
.	.	8g	8a
.	8d	8f	8bn
.	8e	8g	8cc#
8F]	[2f	[2a	[2dd
8E	.	.	.
8F	.	.	.
8G	.	.	.
=43	=43	=43	=43
2A	4f]	8a]	8dd]
.	.	8g#	8bn
.	4e	4a	8ccn
.	.	.	8dd
4r	[2c	8r	[2ee
.	.	8e	.
4A	.	8f	.
.	.	8gn	.
=44	=44	=44	=44
2F	4c]	2a	8ee]
.	.	.	8gg
.	4d	.	8ff
.	.	.	8ee
4r	[2Bn	8r	[2dd
.	.	8d	.
4G	.	8e	.
.	.	8f	.
=45	=45	=45	=45
2E	4B]	2g	8dd]
.	.	.	8ff
.	4c	.	8ee
.	.	.	8dd
4r	[2A	8r	[2cc
.	.	8c	.
4F	.	8d	.
.	.	8e	.
=46	=46	=46	=46
[2D	4A]	[2f	8cc]
.	.	.	8ee
.	4Bn	.	8dd
.	.	.	8cc
8D]	[2G#	8f]	[2bn
8C	.	8e	.
8BBn	.	8d	.
8D	.	8f	.
=47	=47	=47	=47
4.C	4G#]	[2e	8bn]
.	.	.	8a
.	2E	.	8g#
8BBn	.	.	8b
4C	.	4.e]	8a
.	.	.	8b
4AA	[4A	.	[4cc
.	.	8a	.
=48	=48	=48	=48
4.D	4A]	4f	8cc]
.	.	.	8bn
.	2F	[4a	8a
8C	.	.	8cc
4D	.	4.a]	8b
.	.	.	8cc
4BBn	4D	.	[4dd
.	.	8bn	.
=49	=49	=49	=49
4.E	4Bn	4g#	8dd]
.	.	.	8cc
.	2G#	[4bn	8bn
8D	.	.	8dd
4E	.	4.b]	8cc
.	.	.	8dd
4C	4G#	.	[4ee
.	.	8cc	.
=50	=50	=50	=50
4.F	4A	2.a	8ee]
.	.	.	8dd
.	4e	.	8cc#
8E	.	.	8ee
4F	4A	.	8dd
.	.	.	8ee
4D	[4d	8g#	[4ff
.	.	8a	.
=51	=51	=51	=51
2G#	8d]	4bn	4ff]
.	8c	.	.
.	8Bn	4dd	2ee
.	8d	.	.
4r	8c	4g#	.
.	8B	.	.
4E	8A	[4b	4dd
.	8G#	.	.
=52	=52	=52	=52
4A	4.A	8bn]	4cc
.	.	8a	.
4F	.	4cc	2aa
.	8Bn	.	.
4D	2BT	8r	.
.	.	8ff	.
4E	.	8ee	4gg#
.	.	[8dd	.
=53	=53	=53	=53
2AA	2A	8dd]	4aa
.	.	8dd	.
.	.	8cc	4ee
.	.	8bn	.
4r	8r	2a	2cc
.	8d	.	.
4A	8c	.	.
.	8B-	.	.
=54	=54	=54	=54
2F	2A	8r	4r
.	.	8b-	.
.	.	8a	4cc
.	.	8g	.
4r	8r	2f	2a
.	8B-	.	.
4F	8A	.	.
.	8G	.	.
=55	=55	=55	=55
2D	2F	8r	4r
.	.	8gg	.
.	.	8ff	4aa
.	.	8ee	.
4r	8r	2dd	2ff
.	8g	.	.
4d	8f	.	.
.	8e	.	.
=56	=56	=56	=56
2B-	2d	8r	4r
.	.	8ee-	.
.	.	8dd	4ff
.	.	8cc	.
4r	8r	2b-	2dd
.	8e-	.	.
4B-	8d	.	.
.	8c	.	.
=57	=57	=57	=57
2G	4B-	2r	8r
.	.	.	8ccc
.	4g	.	8bb-
.	.	.	8aa
8r	2en	4r	8gg
8A	.	.	8ff
8G	.	4b-	8ee
8F	.	.	8dd
=58	=58	=58	=58
2E	8r	[2g	4cc
.	8c	.	.
.	8B-	.	4dd
.	8A	.	.
8r	[2G	8g]	[2b-
8F	.	8a	.
8E	.	8g	.
8D	.	8f	.
=59	=59	=59	=59
2C	2G]	8e	4b-]
.	.	8cc	.
.	.	8b-	4gg
.	.	8a	.
2r	8r	8g	[2ee
.	8d	8b-	.
.	8c	8a	.
.	8B-	8dd	.
=60	=60	=60	=60
1r	2A	4cc	8ee]
.	.	.	8aa
.	.	4e	8gg
.	.	.	8ff
.	8r	[2c	8ee
.	8B-	.	8dd
.	8A	.	8cc
.	8G	.	8b-
=61	=61	=61	=61
2F	4A	4c]	8a
.	.	.	8ff
.	4Bn	4a-	8ee
.	.	.	8dd#
2C	4c	8g	[2ee
.	.	8dd-	.
.	4e	8cc	.
.	.	8bn	.
=62	=62	=62	=62
2E	2c	[2cc	8ee]
.	.	.	8ff
.	.	.	8ee
.	.	.	8dd#
2G	4r	8cc]	[2ee
.	.	8dd-	.
.	4e	8cc	.
.	.	8bn	.
=63	=63	=63	=63
2B-	2c	[2cc	8ee]
.	.	.	8gg
.	.	.	8ff#
.	.	.	8ee
4A	4r	4.cc]	8ff#
.	.	.	8gg
4G	4e-	.	4aa
.	.	[8cc	.
=64	=64	=64	=64
[2F#	2A	8cc]	2.dd
.	.	8b-	.
.	.	8a	.
.	.	8g	.
8F#]	2r	[2a	.
8D	.	.	.
8E	.	.	4dd
8F#	.	.	.
=65	=65	=65	=65
4G	2d	8a]	[2b-
.	.	8a-	.
4D	.	8g	.
.	.	8f#	.
2BB-	2G	[2g	8b-]
.	.	.	8ee-
.	.	.	8dd
.	.	.	8cc#
=66	=66	=66	=66
4r	2B-	8g]	[2dd
.	.	8a-	.
4D	.	8g	.
.	.	8f#	.
2BB-	2d	4g	8dd]
.	.	.	8ee-
.	.	[4g#	8dd
.	.	.	8cc#
=67	=67	=67	=67
8r	2fn	8g#]	2dd
8C	.	8a	.
8BBn	.	8g#	.
8AA	.	8a	.
8GG#	4e	[2bn	2r
8EE	.	.	.
8FF#	4d	.	.
8GG#	.	.	.
=68	=68	=68	=68
8AA	[2c#	4b-]	1r
8A	.	.	.
8Gn	.	4b-	.
8Fn	.	.	.
8E	8c#]	4g	.
8F	8A	.	.
8G	8Bn	4e	.
8E	8c#	.	.
=69	=69	=69	=69
8F	4d	2.a	1r
8G	.	.	.
8F	4A	.	.
8E	.	.	.
8D	[2f	.	.
8C	.	.	.
8BB-	.	4d	.
8AA	.	.	.
=70	=70	=70	=70
8GG	4f]	2.b-	1r
8AA	.	.	.
8BB-	4G	.	.
8GG	.	.	.
8C	[2e	.	.
8D	.	.	.
8E	.	4c	.
8C	.	.	.
=71	=71	=71	=71
8F	4e]	2.a	1r
8G	.	.	.
8A	4f	.	.
8F	.	.	.
8B-	[2d	.	.
8A	.	.	.
8G	.	4b-	.
8F	.	.	.
=72	=72	=72	=72
8E	8d]	[2g	1r
8D	8f	.	.
8C#	8e	.	.
8BBn	8d	.	.
8AA	[2c#	8g]	.
8GG	.	8b-	.
8FF	.	8a	.
8EE	.	8g	.
=73	=73	=73	=73
4FF	8c#]	2a	1r
.	8e-	.	.
4A	8d	.	.
.	8c#	.	.
4F	8d	2d	.
.	8g	.	.
4D	8f	.	.
.	8en	.	.
=74	=74	=74	=74
4r	8d	2f	1r
.	8e-	.	.
4AA	8d	.	.
.	8c#	.	.
4FF	8d	2a	.
.	8g	.	.
4DD	8f	.	.
.	8en	.	.
=75	=75	=75	=75
8r	8d#	2ccn	1r
8G	8e	.	.
8F#	8d#	.	.
8E	8e	.	.
8D#	8f#	4bn	.
8C#	8e	.	.
8D#	8f#	4a	.
8BBn	8d#	.	.
=76	=76	=76	=76
4E	8Bn	[2g#	1r
.	8c	.	.
4EE	8B	.	.
.	8c	.	.
4BBn	4dn	8g#]	.
.	.	8e	.
4D	4B	8f#	.
.	.	8g#	.
=77	=77	=77	=77
4C	4A	8a	2ee
.	.	8b-	.
4r	4e	8a	.
.	.	8g#	.
4r	4c	8a	2a
.	.	8dd	.
4A	4r	8cc	.
.	.	8bn	.
=78	=78	=78	=78
2F#	4r	8a	2cc
.	.	8b-	.
.	4e	8a	.
.	.	8g#	.
4r	4c	8a	2ee
.	.	8dd	.
4A	[4e	8cc	.
.	.	8bn	.
=79	=79	=79	=79
4F#	4e]	8a#	2ggn
.	.	8ff#	.
4C#	4A#	8ee	.
.	.	8dd	.
4AA#	4r	8cc#	4ff#
.	.	8bn	.
4FF#	8F#	8a#	4ee
.	8Gn	8cc#	.
=80	=80	=80	=80
4r	2An	8f#	[2dd#
.	.	8g	.
4BBn	.	8f#	.
.	.	8g	.
4F#	4r	4a	8dd#]
.	.	.	8bn
[4A	[4Bn	4f#	8cc#
.	.	.	8dd#
=81	=81	=81	=81
4A]	8B]	4e	[2ee
.	8cn	.	.
4G#	8d	4bn	.
.	8Bn	.	.
[2A	4c	[2a	8ee]
.	.	.	8ffn
.	4c#	.	8gg
.	.	.	8ee
=82	=82	=82	=82
8A]	2.d	8a]	8ff
8Bn	.	8g#	8ee
8c	.	8f#	[4dd
8A	.	8a	.
4B	.	4g#	8dd]
.	.	.	8ee
4A	4c	4a	8ffn
.	.	.	8dd
=83	=83	=83	=83
4G#	4Bn	4bn	8ee
.	.	.	8dd
4E	4e	8a	[4cc
.	.	8g#	.
4F	8c	[2a	8cc]
.	8B	.	8dd
[4F#	4c	.	8ee-
.	.	.	8cc
=84	=84	=84	=84
4F#]	4A	4a]	8dd
.	.	.	8cc
2G	4d	8g	[4bn
.	.	8f#	.
.	4e-	4g	8b]
.	.	.	8cc
[4A-	[4fn	4r	8dd
.	.	.	8b
=85	=85	=85	=85
4A-]	8f]	4r	[1cc
.	8Bn	.	.
[4An	8c	[4f#	.
.	8d	.	.
8A]	[2e-	8f#]	.
8G	.	8g	.
8F#	.	8a	.
8A	.	8f#	.
=86	=86	=86	=86
2G	8e-]	4g	2cc]
.	[4.d	.	.
.	.	8fn	.
.	.	8a-	.
2GG	4d]	8g	2bn
.	.	8f	.
.	[4G	8en	.
.	.	8d	.
=87	=87	=87	=87
2C	8G]	4e	2cc
.	8G	.	.
.	8A	4g	.
.	8Bn	.	.
8r	4c	4e	4r
8C	.	.	.
8D	4r	[4g	4cc
8E	.	.	.
=88	=88	=88	=88
2F	4r	8g]	2a
.	.	8g	.
.	4c	8f	.
.	.	8e	.
8r	2A	4f	4r
8G	.	.	.
8F	.	4r	4aa
8E	.	.	.
=89	=89	=89	=89
2D	8r	4r	2ff
.	8A	.	.
.	8Bn	4a	.
.	8c#	.	.
8r	4d	4f	4r
8D	.	.	.
8E	4r	[4a	4dd
8F	.	.	.
=90	=90	=90	=90
2G	4r	8a]	2bn
.	.	8a	.
.	4d	8g	.
.	.	8f#	.
8r	2Bn	2g	4r
8A	.	.	.
8G	.	.	4dd
8Fn	.	.	.
=91	=91	=91	=91
2E	8r	4r	[1gg
.	8Bn	.	.
.	8c#	4ee	.
.	8d	.	.
8r	4e	4cc#	.
8E	.	.	.
8F	4b-	[4dd	.
8G	.	.	.
=92	=92	=92	=92
2A	8e	8dd]	2gg_
.	8d	8bn	.
.	4e	8cc#	.
.	.	8dd	.
4r	2c#	[2ee	8gg]
.	.	.	8gg
4A	.	.	8ff
.	.	.	8ee
=93	=93	=93	=93
2D	4r	8ee]	2ff
.	.	8ee	.
.	4A	8dd	.
.	.	8cc#	.
8r	2F	2dd	8r
8D	.	.	8gg
8Cn	.	.	8aa
8BB-	.	.	8bb-
=94	=94	=94	=94
4AA	4r	2r	8cccn
.	.	.	8ff
4r	4c	.	8ee-
.	.	.	8dd
4r	4A	8r	[2ee-
.	.	8b-	.
4F	4c	8a	.
.	.	8g	.
=95	=95	=95	=95
2BB-	4r	8f	4ee-]
.	.	8cc	.
.	4F	8b-	4dd
.	.	8a	.
8r	2D	4b-	8r
8BB-	.	.	8een
8AA	.	4r	8ff#
8GG	.	.	8gg
=96	=96	=96	=96
4FF#	4r	2r	8aa
.	.	.	8dd
4r	4A	.	8cc
.	.	.	8b-
4r	4F#	8r	[2cc
.	.	8g	.
4D	[4A	8f#	.
.	.	8e	.
=97	=97	=97	=97
4GG	4A]	4d	8cc]
.	.	.	8b-
4AA	8G	4r	8cc
.	8F#	.	8ee-
4BB-	[2G	8r	[2dd
.	.	8g	.
4GG	.	8a	.
.	.	8b-	.
=98	=98	=98	=98
4C	8G]	4e-	4dd]
.	8F#	.	.
4E-	8G	4r	8cc
.	8B-	.	8dd
4C	[2A	8r	[2ee-
.	.	8a	.
4AA	.	8b-	.
.	.	8cc	.
=99	=99	=99	=99
4D	8A]	4f#	4ee-]
.	8G	.	.
4F#	8A	4r	8dd
.	8c	.	8ee-
4D	[2B-	8r	[2ffn
.	.	8b-	.
4BB-	.	8dd	.
.	.	8a-	.
=100	=100	=100	=100
4E-	8B-]	4g	4ff]
.	8A	.	.
4G	8B-	4r	8ee-
.	8d	.	8ff
4En	[2c	8r	[2gg
.	.	8an	.
4C	.	8b-	.
.	.	8g	.
=101	=101	=101	=101
4F	8c]	4a	4gg]
.	8B-	.	.
4A	8c	4r	8ff
.	8e-	.	8gg
4F#	8d	2r	[2aa
.	8c	.	.
4D	8B-	.	.
.	8A	.	.
=102	=102	=102	=102
4G	4.B-	2r	8aa]
.	.	.	8dd
4E-	.	.	2gg
.	8c	.	.
4C	2AT	8r	.
.	.	8ee-	.
4D	.	8dd	4ff#
.	.	8cc	.
=103	=103	=103	=103
4G	8G	4b-	4gg
.	8e-	.	.
4B-	8d	4r	4r
.	8c	.	.
2G	2B-	8r	4r
.	.	8cc	.
.	.	8b-	4gg
.	.	8a	.
=104	=104	=104	=104
4r	8r	2g	2een
.	8c	.	.
4G	8B-	.	.
.	8A	.	.
2E	2G	4r	8r
.	.	.	8ff
.	.	4g	8ee
.	.	.	8dd
=105	=105	=105	=105
4r	8r	2e	2cc
.	8d	.	.
4A	8c	.	.
.	8B-	.	.
2F	2A	8r	4r
.	.	8b-	.
.	.	8a	4cc
.	.	8g	.
=106	=106	=106	=106
4r	8r	2f	2a
.	8B-	.	.
4F	8A	.	.
.	8G	.	.
[2D	2F	4r	8r
.	.	.	8gg
.	.	4a	8ff
.	.	.	8ee
=107	=107	=107	=107
4D]	2A	[2f	8dd
.	.	.	8ee-
2F	.	.	8dd
.	.	.	8cc#
.	2D	8f]	[2dd
.	.	8g	.
[4BB-	.	8f	.
.	.	8en	.
=108	=108	=108	=108
4BB-]	2F	4d	8dd]
.	.	.	8ee-
2D	.	[4f	8dd
.	.	.	8cc#
.	2A	8f]	[2dd
.	.	8g	.
[4F	.	8f	.
.	.	8en	.
=109	=109	=109	=109
4F]	2B-	4d	8dd]
.	.	.	8ee-
[4G	.	4en	8dd
.	.	.	8cc#
8G]	4A	8f	4.dd
4F	.	8a	.
.	4G	8bn	.
8E	.	8cc#	8een
=110	=110	=110	=110
[2D	[2F	4dd	4ff
.	.	4ff	4aa
8D]	8F]	4dd	4ff
8C#	8E	.	.
8D	8F	4a	4r
8E	8G	.	.
=111	=111	=111	=111
[2F	8A	2f	4dd
.	8B-	.	.
.	8A	.	2a
.	8G#	.	.
8F]	[2A	2cn	.
8F	.	.	.
8E	.	.	[4cc
8D	.	.	.
=112	=112	=112	=112
[2C	8A]	2e	4cc]
.	8A	.	.
.	8Gn	.	2ee
.	8F	.	.
8C]	4E	2g#	.
4BBn	.	.	.
.	[4D	.	[4ff
8BB-	.	.	.
=113	=113	=113	=113
[1AA	8D]	2a	4ff]
.	8E	.	.
.	8D	.	2ee
.	8C#	.	.
.	8D	4gn	.
.	8E	.	.
.	8F	4f	[4dd
.	8G	.	.
=114	=114	=114	=114
8AA]	8A	[2e	4dd]
8G	8r	.	.
8A	4r	.	[4cc#
8B-	.	.	.
8A	2r	8e]	8cc#]
8G	.	8c#	8a
8F	.	8d	8bn
8E	.	8e	8cc#
=115	=115	=115	=115
2F#	8r	4A	2dd
.	8cn	.	.
.	8d	4a	.
.	8e-	.	.
4r	8d	2f#	4r
.	8c	.	.
4D	8B-	.	4dd
.	8A	.	.
=116	=116	=116	=116
4GG	4G	8r	2b-
.	.	8f#	.
4r	4d	8g	.
.	.	8a	.
4r	[2B-	8g	2r
.	.	8fn	.
4G	.	8e	.
.	.	8d	.
=117	=117	=117	=117
2E	8B-]	4c	8r
.	8G	.	8b-
.	8A	4r	8cc
.	8B-	.	8dd
4r	8A	2r	8cc
.	8G	.	8b-
4C	8F	.	8a
.	8E	.	8g
=118	=118	=118	=118
4F	[1F	8r	[1a
.	.	8e	.
4C	.	8f	.
.	.	8g	.
4AA	.	8f	.
.	.	8e-	.
4FF	.	8d	.
.	.	8c#	.
=119	=119	=119	=119
[2BB-	8F]	4d	4a]
.	8F	.	.
.	8En	4r	4g
.	8D	.	.
8BB-]	4E	4r	[2cc
8AA	.	.	.
8GG	[4G	4en	.
8BB-	.	.	.
=120	=120	=120	=120
8AA	4G]	4c	4cc]
8BBn	.	.	.
[4C	8F#	4r	4a
.	8E	.	.
8C]	4F#	4r	[2dd
8BB	.	.	.
8AA	[4A	4f#	.
8C	.	.	.
=121	=121	=121	=121
8BBn	4A]	4d	4dd]
8C#	.	.	.
[4D	8G#	4r	4bn
.	8F#	.	.
8D]	4G#	4r	[2ee
8C#	.	.	.
8BB	[4Bn	4g#	.
8D	.	.	.
=122	=122	=122	=122
8C#	4B]	4e	8ee]
8D	.	.	8ffn
[4E	4B-	4r	8gg
.	.	.	8dd
8E]	[2A	2r	8cc#
8D	.	.	8bb-
8C#	.	.	8aa
8E	.	.	8gg
=123	=123	=123	=123
4D	4A]	8r	[1ff
.	.	8dd	.
4E	4G	8cc#	.
.	.	8ee	.
4F	4A	8dd	.
.	.	8ccn	.
4D	[4d	8b-	.
.	.	8a	.
=124	=124	=124	=124
2G	4d]	8b-	4ff]
.	.	8a	.
.	4B-	[4g	8ee
.	.	.	8dd
4r	4G	8g]	[2ee
.	.	8a	.
4C	4E	8b-	.
.	.	8g	.
=125	=125	=125	=125
2F	4r	8a	4ee]
.	.	8g	.
.	4A	[4f	8dd
.	.	.	8cc#
4r	4F	8f]	[2dd
.	.	8g	.
4FF	4D	8a	.
.	.	8f	.
=126	=126	=126	=126
[2BB-	4r	8g	4dd]
.	.	8a	.
.	4G	[4e-	8ccn
.	.	.	8b-
8BB-]	4E-	8e-]	[2cc
8AA	.	8f#	.
8BB-	4C	8g	.
8GG	.	8en	.
=127	=127	=127	=127
8BB-	[2D	8f#	2cc_
8AA	.	8g	.
8GG	.	4a	.
8FF#	.	.	.
[2GG	8D]	4d	8cc]
.	8D	.	8b-
.	8E	4r	8cc
.	8F#	.	8a
=128	=128	=128	=128
8GG]	4G	1r	8b-
8FF#	.	.	8dd
8GG	4r	.	8ee-
8AA	.	.	8cc
8BB-	2r	.	8dd
8GG	.	.	8gg
8BB-	.	.	8dd
8D	.	.	[8cc
=129	=129	=129	=129
[1G	2d	4r	8cc]
.	.	.	8b-
.	.	4A	8cc
.	.	.	8ee-
.	2G	4B-	8dd
.	.	.	8cc
.	.	4c	8b-
.	.	.	8a
=130	=130	=130	=130
8G]	2B-	2d	8g
8D	.	.	8f#
8C	.	.	4g
8AA	.	.	.
8BB-	2d	4r	4r
8D	.	.	.
8GG	.	4A	4a
8FFn	.	.	.
=131	=131	=131	=131
8EE	2fn	2Bn	2g#
8E	.	.	.
8D	.	.	.
8BBn	.	.	.
8C	4e	4r	4a
8E	.	.	.
8AA	4d	[4f	4r
8GG#	.	.	.
=132	=132	=132	=132
8AA	[2c#	4f]	2r
8A	.	.	.
8G	.	4e	.
8E	.	.	.
[2F	8c#]	2r	8r
.	8A	.	8aa
.	8Bn	.	8gg
.	8c#	.	8ee
=133	=133	=133	=133
2F]	4d	2a	8ff
.	.	.	8aa
.	[4A	.	8dd
.	.	.	8cc#
2BB-	8A]	2d	[2dd
.	8B-	.	.
.	8A	.	.
.	8G#	.	.
=134	=134	=134	=134
1AA	8A	2f	8dd]
.	8BBn	.	8ff
.	8C#	.	8ee
.	8D	.	8dd
.	8E	2a	8cc#
.	8F	.	8dd
.	8G	.	8bn
.	8E	.	8cc#
=135	=135	=135	=135
[1D	8F#	2b-	4.dd
.	8A	.	.
.	[4G	.	.
.	.	.	8cc#
.	8G]	4a	4.dd
.	8F#	.	.
.	[4B-	4g	.
.	.	.	8cc#
=136	=136	=136	=136
1D_	8B-]	[2f#	4.dd
.	8A	.	.
.	2cn	.	.
.	.	.	8ee-
.	.	8f#]	4a
.	.	8d	.
.	8Bn	8en	4r
.	8A	8f#	.
=137	=137	=137	=137
1D_	4Bn	[2g	8r
.	.	.	8dd
.	2B-	.	8een
.	.	.	8gg
.	.	8g]	2cc#
.	.	8f#	.
.	8A	8g	.
.	8G	8e	.
=138	=138	=138	=138
1D;]	1A;	1f#;	1dd;
====	====	====	====
*-	*-	*-	*-
